X:182
T:Miss Sarah Barker of Mt Isa
C:Trish Barker, 2007
R:Jig
M:6/8
L:1/8
K:D % 2 sharps
G|"D"'F3 DEF|"G"G2B dcB|"D"A2F DEF|"A"(E3 E2) A/2 G/2|"D"F3 DEF|\
"G"G2B dcB|"D"AdF "A"EDE|"D"(D3 D2):||:F/2G/2|"D"A2d dcd|A2f fef|Adf agf|\
"A7"2ge c2A|"G"B2d dcB|"D"Adf agf| "G"Bcd "A7"c2e|"D"(d3d2):||

%  <A name="D1X183"></A>

